modules/hawcons-filled/icons/two-fingers-swipe-right.svg

<?xml version="1.0" encoding="UTF-8" standalone="no"?>
<svg width="32px" height="32px" viewBox="0 0 32 32" version="1.1" xmlns="http://www.w3.org/2000/svg" xmlns:xlink="http://www.w3.org/1999/xlink" xmlns:sketch="http://www.bohemiancoding.com/sketch/ns">
    <!-- Generator: Sketch 3.0.3 (7891) - http://www.bohemiancoding.com/sketch -->
    <title>icon 9 two fingers swipe right</title>
    <desc>Created with Sketch.</desc>
    <defs></defs>
    <g id="Page-1" stroke="none" stroke-width="1" fill="none" fill-rule="evenodd" sketch:type="MSPage">
        <g id="icon-9-two-fingers-swipe-right" sketch:type="MSArtboardGroup" fill="#929292">
            <path d="M18.1151466,8 L18.1151466,14.5082011 L18.1151466,16 L19.1151466,16 L19.1151466,14.5082011 L19.1151466,13.4912653 C19.1151466,12.6625444 19.7867195,12 20.6151466,12 C21.4493494,12 22.1151466,12.6676622 22.1151466,13.4912653 L22.1151466,14.6781559 L22.1151466,17 L23.1151466,17 L23.1151466,16.7497253 L23.1151466,14.5063976 C23.1151466,13.6764628 23.7867195,13 24.6151466,13 C25.4493494,13 26.1151466,13.6744372 26.1151466,14.5063976 L26.1151466,19.2468012 L26.1151466,22.5 C26.1151466,26.6421358 22.7572825,30 18.6151466,30 C14.8554315,29.9995418 12.6251425,27.9488875 10.8625221,24.9830936 C6.95050863,18.4007216 4.14900956,15.3887562 5.23617935,14.2957153 C6.34677642,13.1791206 9.05674703,15.5979243 11.1151466,17.7983451 L11.1151466,7.50863659 C11.1151466,6.66642015 11.7867195,6 12.6151466,6 C13.4493494,6 14.1151466,6.67543961 14.1151466,7.50863659 L14.1151466,14.5 L14.1151466,17 L15.1151466,17 L15.1151466,14.4325233 L15.1151466,5.49089813 C15.1151466,4.67622006 15.7867195,4 16.6151466,4 C17.4493494,4 18.1151466,4.66749783 18.1151466,5.49089813 L18.1151466,7 L26.1651456,7 L22.9151456,3.75 L23.6651456,3 L28.1651456,7.5 L23.6651456,12 L22.9151456,11.25 L26.1651456,8 L18.1151466,8 L18.1151466,8 Z" id="two-fingers-swipe-right" sketch:type="MSShapeGroup"></path>
        </g>
    </g>
</svg>

<svg width="32" height="32" xmlns="http://www.w3.org/2000/svg"><path d="M18.115 8v8h1v-2.509c0-.828.672-1.491 1.5-1.491.834 0 1.5.668 1.5 1.491V17h1v-2.494a1.5 1.5 0 1 1 3 0V22.5a7.5 7.5 0 0 1-7.5 7.5c-3.76 0-5.99-2.051-7.752-5.017-3.912-6.582-6.714-9.594-5.627-10.687 1.11-1.117 3.82 1.302 5.88 3.502V7.508a1.5 1.5 0 0 1 3 0V17h1V5.491a1.501 1.501 0 0 1 3 0V7h8.05l-3.25-3.25.75-.75 4.5 4.5-4.5 4.5-.75-.75L26.165 8h-8.05z" fill="#929292" fill-rule="evenodd"/></svg>
